X: 43102
T: Winding Stairs, The
R: slip jig
M: 9/8
K: Edorian
EDE B2F G2F|E2B B2F AFD|EDE B2F G2B|AFA dAG FED:|
B2e e2d e2d|B2e e2a fdB|A2d d2c d2B|AFA dAG FED|
Bcd e2d e2d|B2e e2a fdB|gab efg dcB|AAA dAG FED|

